src/status/16/si-syncthing-11.svg

<svg xmlns="http://www.w3.org/2000/svg" viewBox="0 0 16 16">
 <path d="M 4.499987 1.937772 A 7 7 0 0 0 1.937809 11.49995 a 7 7 0 0 0 0.045378 0.07078 1.5 1.5 0 0 0 0.07691 2.039467 1.5 1.5 0 0 0 1.960476 0.137833 7 7 0 0 0 7.479411 0.314096 7 7 0 0 0 2.749945 -2.920549 1.5 1.5 0 0 0 1.345905 -1.106326 A 1.5 1.5 0 0 0 14.984388 8.405884 7 7 0 0 0 14.06216 4.499949 7 7 0 0 0 12.459717 2.615053 1.5 1.5 0 0 0 12.07385 1.157653 1.5 1.5 0 0 0 10.184604 0.967413 1.5 1.5 0 0 0 9.951918 1.158138 1.5 1.5 0 0 0 9.863459 1.258828 7 7 0 0 0 4.499988 1.937773 z M 4.999988 2.803796 A 6 6 0 0 1 9.513954 2.200342 1.5 1.5 0 0 0 9.952402 3.280069 1.5 1.5 0 0 0 10.164187 3.455494 L 9.431 6.19 A 1.5 1.5 0 0 0 8.100291 7.294775 1.5 1.5 0 0 0 8.120277 8.137985 L 3.945 11.297 A 1.5 1.5 0 0 0 2.851163 11.07411 6 6 0 0 1 2.803837 10.999942 6 6 0 0 1 4.99999 2.80379 z m 6.130025 0.910485 a 1.5 1.5 0 0 0 0.756065 -0.276389 6 6 0 0 1 1.31006 1.562058 6 6 0 0 1 0.794841 3.154047 1.5 1.5 0 0 0 -0.946067 0.478553 L 11.04 7.778 A 1.5 1.5 0 0 0 10.397246 6.449002 z M 8.724624 8.934745 a 1.5 1.5 0 0 0 0.436214 0.196952 1.5 1.5 0 0 0 1.491351 -0.43253 l 2 0.855 a 1.5 1.5 0 0 0 0.616547 1.306173 6 6 0 0 1 -2.268759 2.336019 6 6 0 0 1 -6.426405 -0.279293 1.5 1.5 0 0 0 -0.02473 -0.820176 z" style="fill:#2e3440;opacity:1;fill-opacity:1;stroke:none;fill-rule:nonzero"/>
</svg>

<svg viewBox="0 0 16 16" xmlns="http://www.w3.org/2000/svg">
 <path d="m4.5 1.9378a7 7 0 0 0-2.5622 9.5622 7 7 0 0 0 0.045378 0.07078 1.5 1.5 0 0 0 0.07691 2.0395 1.5 1.5 0 0 0 1.9605 0.13783 7 7 0 0 0 7.4794 0.3141 7 7 0 0 0 2.7499-2.9205 1.5 1.5 0 0 0 1.3459-1.1063 1.5 1.5 0 0 0-0.61145-1.6294 7 7 0 0 0-0.92223-3.9059 7 7 0 0 0-1.6024-1.8849 1.5 1.5 0 0 0-0.38587-1.4574 1.5 1.5 0 0 0-1.8892-0.19024 1.5 1.5 0 0 0-0.23269 0.19072 1.5 1.5 0 0 0-0.088459 0.10069 7 7 0 0 0-5.3635 0.67894zm0.5 0.86602a6 6 0 0 1 4.514-0.60345 1.5 1.5 0 0 0 0.43845 1.0797 1.5 1.5 0 0 0 0.21178 0.17542l-0.73319 2.7345a1.5 1.5 0 0 0-1.3307 1.1048 1.5 1.5 0 0 0 0.019986 0.84321l-4.1753 3.159a1.5 1.5 0 0 0-1.0938-0.22289 6 6 0 0 1-0.047326-0.074168 6 6 0 0 1 2.1962-8.1962zm6.13 0.91048a1.5 1.5 0 0 0 0.75606-0.27639 6 6 0 0 1 1.3101 1.5621 6 6 0 0 1 0.79484 3.154 1.5 1.5 0 0 0-0.94607 0.47855l-2.0049-0.85455a1.5 1.5 0 0 0-0.64275-1.329zm-2.4054 5.2205a1.5 1.5 0 0 0 0.43621 0.19695 1.5 1.5 0 0 0 1.4914-0.43253l2 0.855a1.5 1.5 0 0 0 0.61655 1.3062 6 6 0 0 1-2.2688 2.336 6 6 0 0 1-6.4264-0.27929 1.5 1.5 0 0 0-0.02473-0.82018z" fill="#2e3440"/>
</svg>
